cireg/static/images/Logo_Medium_On_Dark.svg

<svg xmlns="http://www.w3.org/2000/svg" xmlns:xlink="http://www.w3.org/1999/xlink" width="183" height="43" viewBox="0 0 183 43">
  <defs>
    <path id="logo_medium_on_dark-a" d="M44.055071,28.0749885 C43.0184897,27.5531455 41.7745921,27.9706199 41.2562683,29.0142726 C38.3538406,34.9632498 32.2378449,38.9294573 25.7072168,38.9294573 C17.2075816,38.9294573 10.1581652,32.771676 8.70728309,24.631125 L13.1646159,24.2136506 L6.11586296,16.385838 L0,25.3618723 L4.56095781,24.9443978 C6.21948792,35.1721874 15.0302633,43 25.7072168,43 C33.896375,43 41.4632528,38.199044 44.9872976,30.7890399 C45.5055883,29.7453538 45.0909557,28.4929305 44.0544076,28.0754561 L44.055071,28.0749885 Z M46.7501824,17.9514005 C45.0916523,7.72361096 36.280877,0 25.7074158,0 C17.5182575,0 10.26252,4.59221874 6.5308272,11.8976873 C6.01253654,12.9413734 6.42716906,14.1937967 7.46371721,14.7156731 C8.50026536,15.2375496 9.74419612,14.8200417 10.26252,13.776389 C13.1649476,7.8274118 19.177451,4.17447713 25.7074158,4.17447713 C34.1035586,4.17447713 41.1523116,10.3322584 42.7073494,18.3686078 L39.0792816,18.6817136 L45.6097771,26.0920518 L51,17.6383615 L46.7501824,17.9514005 Z"/>
    <path id="logo_medium_on_dark-c" d="M9.99706266,0.888523828 L0.744767456,11.6790782 C0.127925843,12.3984923 0.641960521,13.6317173 1.66999698,13.6317173 L7.01595762,13.6317173 L3.21213391,22.983838 C3.00652004,23.4976818 3.62336165,23.805988 4.03458939,23.4976818 L14.2126405,11.2680361 C14.9323219,10.4458861 14.3154474,9.1099252 13.1845711,9.1099252 L8.45545211,9.1099252 L11.3340463,1.71057517 C11.5396602,0.88842517 10.5115908,0.271812669 9.99758904,0.88842517 L9.99706266,0.888523828 Z"/>
    <path id="logo_medium_on_dark-e" d="M14.26,31.004 C11.6533203,31.004 9.26901081,30.4290058 7.107,29.279 C4.94498919,28.1289943 3.22000644,26.4040115 1.932,24.104 C0.64399356,21.8039885 0,19.0133497 0,15.732 C0,12.5119839 0.66699333,9.71367855 2.001,7.337 C3.33500667,4.96032145 5.09832237,3.14333962 7.291,1.886 C9.48367763,0.62866038 11.8679871,0 14.444,0 C16.2840092,0 18.0013254,0.36799632 19.596,1.104 C21.1906746,1.84000368 22.5706608,2.79066084 23.736,3.956 L19.596,9.016 C18.7679959,8.27999632 17.9706705,7.72800184 17.204,7.36 C16.4373295,6.99199816 15.5786714,6.808 14.628,6.808 C13.4626608,6.808 12.3816717,7.16066314 11.385,7.866 C10.3883283,8.57133686 9.59100299,9.57566015 8.993,10.879 C8.39499701,12.1823398 8.096,13.7079913 8.096,15.456 C8.096,18.2160138 8.67866084,20.362659 9.844,21.896 C11.0093392,23.429341 12.5733235,24.196 14.536,24.196 C16.5600101,24.196 18.3693254,23.3373419 19.964,21.62 L24.104,26.588 C22.8466604,28.0600074 21.3823417,29.1639963 19.711,29.9 C18.0396583,30.6360037 16.2226765,31.004 14.26,31.004 Z M28.244,0.552 L36.156,0.552 L36.156,30.452 L28.244,30.452 L28.244,0.552 Z M58.88,30.452 L53.728,20.424 L50.692,20.424 L50.692,30.452 L42.78,30.452 L42.78,0.552 L54.096,0.552 C57.6840179,0.552 60.5743224,1.29565923 62.767,2.783 C64.9596776,4.27034077 66.056,6.74664934 66.056,10.212 C66.056,12.2666769 65.626671,14.0146595 64.768,15.456 C63.909329,16.8973405 62.7286742,18.0319959 61.226,18.86 L67.712,30.452 L58.88,30.452 Z M50.692,14.168 L53.544,14.168 C55.1080078,14.168 56.2963293,13.83067 57.109,13.156 C57.9216707,12.48133 58.328,11.5000064 58.328,10.212 C58.328,8.95466038 57.9370039,8.07300253 57.155,7.567 C56.3729961,7.06099747 55.1693415,6.808 53.544,6.808 L50.692,6.808 L50.692,14.168 Z M71.76,0.552 L91.08,0.552 L91.08,7.176 L79.672,7.176 L79.672,11.868 L89.424,11.868 L89.424,18.492 L79.672,18.492 L79.672,23.828 L91.54,23.828 L91.54,30.452 L71.76,30.452 L71.76,0.552 Z M111.136,31.004 C108.283986,31.004 105.715678,30.4290058 103.431,29.279 C101.146322,28.1289943 99.3446733,26.4040115 98.026,24.104 C96.7073267,21.8039885 96.048,19.0133497 96.048,15.732 C96.048,12.5119839 96.7226599,9.71367855 98.072,7.337 C99.4213401,4.96032145 101.230655,3.14333962 103.5,1.886 C105.769345,0.62866038 108.25332,0 110.952,0 C113.006677,0 114.854325,0.36799632 116.495,1.104 C118.135675,1.84000368 119.538661,2.79066084 120.704,3.956 L116.564,9.016 C115.735996,8.27999632 114.915671,7.72800184 114.103,7.36 C113.290329,6.99199816 112.332006,6.808 111.228,6.808 C109.142656,6.808 107.440673,7.58232559 106.122,9.131 C104.803327,10.6796744 104.144,12.7879867 104.144,15.456 C104.144,18.3080143 104.787994,20.4776592 106.076,21.965 C107.364006,23.4523408 109.326653,24.196 111.964,24.196 C112.945338,24.196 113.711997,24.0120018 114.264,23.644 L114.264,19.504 L109.848,19.504 L109.848,13.064 L121.256,13.064 L121.256,27.324 C120.151994,28.3973387 118.695342,29.2789966 116.886,29.969 C115.076658,30.6590035 113.16001,31.004 111.136,31.004 Z"/>
  </defs>
  <g fill="none" fill-rule="evenodd">
    <mask id="logo_medium_on_dark-b" fill="#fff">
      <use xlink:href="#logo_medium_on_dark-a"/>
    </mask>
    <use fill="#0C4D6C" xlink:href="#logo_medium_on_dark-a"/>
    <g fill="#F7F7F7" mask="url(#logo_medium_on_dark-b)">
      <rect width="51" height="43"/>
    </g>
    <g transform="translate(18 9)">
      <mask id="logo_medium_on_dark-d" fill="#fff">
        <use xlink:href="#logo_medium_on_dark-c"/>
      </mask>
      <g fill="#EEA00A" mask="url(#logo_medium_on_dark-d)">
        <rect width="15" height="24"/>
      </g>
    </g>
    <g transform="translate(61 6)">
      <mask id="logo_medium_on_dark-f" fill="#fff">
        <use xlink:href="#logo_medium_on_dark-e"/>
      </mask>
      <use fill="#F7F7F7" xlink:href="#logo_medium_on_dark-e"/>
      <g fill="#F7F7F7" mask="url(#logo_medium_on_dark-f)">
        <rect width="122" height="33" transform="translate(0 -1)"/>
      </g>
    </g>
  </g>
</svg>

<svg xmlns="http://www.w3.org/2000/svg" xmlns:xlink="http://www.w3.org/1999/xlink" width="183" height="43"><defs><path id="a" d="M44.055 28.075a2.07 2.07 0 0 0-2.799.94c-2.902 5.948-9.018 9.914-15.549 9.914-8.5 0-15.549-6.157-17-14.298l4.458-.417-7.05-7.828L0 25.362l4.561-.418C6.219 35.172 15.031 43 25.707 43c8.19 0 15.756-4.801 19.28-12.211.519-1.044.104-2.296-.933-2.714h.001zm2.695-10.124C45.092 7.724 36.28 0 25.707 0 17.518 0 10.263 4.592 6.531 11.898a2.098 2.098 0 0 0 .933 2.818 2.07 2.07 0 0 0 2.799-.94c2.902-5.949 8.914-9.602 15.444-9.602 8.397 0 15.445 6.158 17 14.195l-3.628.313 6.53 7.41L51 17.638l-4.25.313z"/><path id="c" d="M9.997.889L.745 11.679c-.617.72-.103 1.953.925 1.953h5.346l-3.804 9.352c-.205.514.411.822.823.514l10.178-12.23c.72-.822.102-2.158-1.028-2.158h-4.73l2.879-7.4C11.54.889 10.512.273 9.998.889z"/><path id="e" d="M14.26 31.004c-2.607 0-4.991-.575-7.153-1.725-2.162-1.15-3.887-2.875-5.175-5.175C.644 21.804 0 19.014 0 15.732c0-3.22.667-6.018 2.001-8.395 1.334-2.377 3.097-4.194 5.29-5.451C9.484.629 11.868 0 14.444 0c1.84 0 3.557.368 5.152 1.104 1.595.736 2.975 1.687 4.14 2.852l-4.14 5.06c-.828-.736-1.625-1.288-2.392-1.656-.767-.368-1.625-.552-2.576-.552-1.165 0-2.246.353-3.243 1.058-.997.705-1.794 1.71-2.392 3.013-.598 1.303-.897 2.829-.897 4.577 0 2.76.583 4.907 1.748 6.44 1.165 1.533 2.73 2.3 4.692 2.3 2.024 0 3.833-.859 5.428-2.576l4.14 4.968c-1.257 1.472-2.722 2.576-4.393 3.312-1.671.736-3.488 1.104-5.451 1.104zM28.244.552h7.912v29.9h-7.912V.552zm30.636 29.9l-5.152-10.028h-3.036v10.028H42.78V.552h11.316c3.588 0 6.478.744 8.671 2.231 2.193 1.487 3.289 3.964 3.289 7.429 0 2.055-.43 3.803-1.288 5.244-.859 1.441-2.04 2.576-3.542 3.404l6.486 11.592H58.88zm-8.188-16.284h2.852c1.564 0 2.752-.337 3.565-1.012.813-.675 1.219-1.656 1.219-2.944 0-1.257-.391-2.139-1.173-2.645-.782-.506-1.986-.759-3.611-.759h-2.852v7.36zM71.76.552h19.32v6.624H79.672v4.692h9.752v6.624h-9.752v5.336H91.54v6.624H71.76V.552zm39.376 30.452c-2.852 0-5.42-.575-7.705-1.725-2.285-1.15-4.086-2.875-5.405-5.175s-1.978-5.09-1.978-8.372c0-3.22.675-6.018 2.024-8.395 1.35-2.377 3.159-4.194 5.428-5.451C105.77.629 108.253 0 110.952 0c2.055 0 3.902.368 5.543 1.104 1.64.736 3.044 1.687 4.209 2.852l-4.14 5.06c-.828-.736-1.648-1.288-2.461-1.656-.813-.368-1.771-.552-2.875-.552-2.085 0-3.787.774-5.106 2.323s-1.978 3.657-1.978 6.325c0 2.852.644 5.022 1.932 6.509 1.288 1.487 3.25 2.231 5.888 2.231.981 0 1.748-.184 2.3-.552v-4.14h-4.416v-6.44h11.408v14.26c-1.104 1.073-2.56 1.955-4.37 2.645s-3.726 1.035-5.75 1.035z"/></defs><g fill="none" fill-rule="evenodd"><mask id="b" fill="#fff"><use xlink:href="#a"/></mask><use fill="#0C4D6C" xlink:href="#a"/><g fill="#F7F7F7" mask="url(#b)"><path d="M0 0h51v43H0z"/></g><g transform="translate(18 9)"><mask id="d" fill="#fff"><use xlink:href="#c"/></mask><g fill="#EEA00A" mask="url(#d)"><path d="M0 0h15v24H0z"/></g></g><g transform="translate(61 6)"><mask id="f" fill="#fff"><use xlink:href="#e"/></mask><use fill="#F7F7F7" xlink:href="#e"/><g fill="#F7F7F7" mask="url(#f)"><path d="M0-1h122v33H0z"/></g></g></g></svg>
